images/contacts-icon.svg

<svg width="16" height="16" viewBox="0 0 16 16" fill="none" xmlns="http://www.w3.org/2000/svg">
<g id="icon / sidebar / inactive / 4. contacts">
<path id="Vector" opacity="0.4" d="M2.4 7.19999C3.2825 7.19999 4 6.48249 4 5.59999C4 4.71749 3.2825 3.99999 2.4 3.99999C1.5175 3.99999 0.8 4.71749 0.8 5.59999C0.8 6.48249 1.5175 7.19999 2.4 7.19999ZM13.6 7.19999C14.4825 7.19999 15.2 6.48249 15.2 5.59999C15.2 4.71749 14.4825 3.99999 13.6 3.99999C12.7175 3.99999 12 4.71749 12 5.59999C12 6.48249 12.7175 7.19999 13.6 7.19999ZM14.4 7.99999H12.8C12.36 7.99999 11.9625 8.17749 11.6725 8.46499C12.68 9.01749 13.395 10.015 13.55 11.2H15.2C15.6425 11.2 16 10.8425 16 10.4V9.59999C16 8.71749 15.2825 7.99999 14.4 7.99999ZM8 7.99999C9.5475 7.99999 10.8 6.74749 10.8 5.19999C10.8 3.65249 9.5475 2.39999 8 2.39999C6.4525 2.39999 5.2 3.65249 5.2 5.19999C5.2 6.74749 6.4525 7.99999 8 7.99999ZM9.92 8.79999H9.7125C9.1925 9.04999 8.615 9.19999 8 9.19999C7.385 9.19999 6.81 9.04999 6.2875 8.79999H6.08C4.49 8.79999 3.2 10.09 3.2 11.68V12.4C3.2 13.0625 3.7375 13.6 4.4 13.6H11.6C12.2625 13.6 12.8 13.0625 12.8 12.4V11.68C12.8 10.09 11.51 8.79999 9.92 8.79999ZM4.3275 8.46499C4.0375 8.17749 3.64 7.99999 3.2 7.99999H1.6C0.7175 7.99999 0 8.71749 0 9.59999V10.4C0 10.8425 0.3575 11.2 0.8 11.2H2.4475C2.605 10.015 3.32 9.01749 4.3275 8.46499Z" fill="#9FA2B4"/>
</g>
</svg>

<svg xmlns="http://www.w3.org/2000/svg" width="16" height="16" fill="none"><path fill="#9FA2B4" d="M2.4 7.2c.883 0 1.6-.718 1.6-1.6C4 4.717 3.283 4 2.4 4 1.518 4 .8 4.717.8 5.6c0 .882.718 1.6 1.6 1.6Zm11.2 0c.883 0 1.6-.718 1.6-1.6 0-.883-.717-1.6-1.6-1.6-.883 0-1.6.717-1.6 1.6 0 .882.717 1.6 1.6 1.6Zm.8.8h-1.6c-.44 0-.838.177-1.128.465A3.657 3.657 0 0 1 13.55 11.2h1.65a.8.8 0 0 0 .8-.8v-.8c0-.883-.717-1.6-1.6-1.6ZM8 8c1.547 0 2.8-1.253 2.8-2.8 0-1.548-1.253-2.8-2.8-2.8a2.799 2.799 0 0 0-2.8 2.8C5.2 6.747 6.452 8 8 8Zm1.92.8h-.207c-.52.25-1.098.4-1.713.4s-1.19-.15-1.713-.4H6.08a2.88 2.88 0 0 0-2.88 2.88v.72a1.2 1.2 0 0 0 1.2 1.2h7.2a1.2 1.2 0 0 0 1.2-1.2v-.72A2.88 2.88 0 0 0 9.92 8.8Zm-5.593-.335A1.595 1.595 0 0 0 3.2 8H1.6C.717 8 0 8.717 0 9.6v.8a.8.8 0 0 0 .8.8h1.647a3.666 3.666 0 0 1 1.88-2.735Z" opacity=".4"/></svg>
